Flat Remix Dark/apps/scalable/kwave.svg

<svg xmlns="http://www.w3.org/2000/svg" width="64" height="64" version="1">
 <path style="opacity:0.2" d="m 4.0000004,53.222068 0,1.999972 c 0,1.539978 1.2495821,2.77796 2.80076,2.77796 L 57.20004,58 C 58.750017,58 60,56.762018 60,55.22204 l 0,-1.999972 c 0,1.539978 -1.249983,2.777961 -2.79996,2.777961 l -50.3992796,0 c -1.5503779,0 -2.79996,-1.237983 -2.79996,-2.777961 z"/>
 <path style="fill:#2794d1" d="m 59.9992,54.222068 0,-44.4433641 c 0,-1.539178 -1.247983,-2.7779603 -2.79996,-2.7779603 l -50.3992796,0 c -1.5511779,0 -2.79996,1.2387823 -2.79996,2.7777603 l 0,44.4433641 c 0,1.539978 1.2487821,2.777961 2.79996,2.777961 l 50.3992796,0 c 1.551177,0 2.79996,-1.238863 2.79996,-2.777761 z"/>
 <path style="opacity:0.2;fill:none;stroke:#000000;stroke-width:1.99997139;stroke-linecap:round;stroke-linejoin:round" d="m 15.002643,39.000951 4.000543,-19.999714 1.999971,29.999571 1.999972,-27.9996 1.999971,25.999628 1.999971,-21.999685 1.999972,13.9998 3.999943,-17.999743 0,23.999657 3.999942,-25.999628 3.999943,29.999571 1.999972,-21.999686 3.999342,9.999857"/>
 <path style="fill:none;stroke:#ffffff;stroke-width:1.99997139;stroke-linecap:round;stroke-linejoin:round" d="m 15.002643,38.0003 4.000543,-19.999714 1.999971,29.999571 1.999972,-27.999599 1.999971,25.999628 1.999971,-21.999686 1.999972,13.9998 3.999943,-17.999742 0,23.999656 3.999942,-25.999628 3.999943,29.999571 1.999972,-21.999685 3.999342,9.999857"/>
 <path style="opacity:0.2;fill:#ffffff" d="M 6.8007812 7 C 5.2496034 7 4 8.2383657 4 9.7773438 L 4 10.777344 C 4 9.2383657 5.2496034 8 6.8007812 8 L 57.199219 8 C 58.751196 8 60 9.2381656 60 10.777344 L 60 9.7773438 C 60 8.2381658 58.751196 7 57.199219 7 L 6.8007812 7 z"/>
</svg>

<svg xmlns="http://www.w3.org/2000/svg" xmlns:xlink="http://www.w3.org/1999/xlink" width="384pt" height="384pt" version="1.1" viewBox="0 0 384 384">
 <defs>
  <filter id="alpha" width="100%" height="100%" x="0%" y="0%" filterUnits="objectBoundingBox">
   <feColorMatrix in="SourceGraphic" type="matrix" values="0 0 0 0 1 0 0 0 0 1 0 0 0 0 1 0 0 0 1 0"/>
  </filter>
  <mask id="mask0">
   <g filter="url(#alpha)">
    <rect width="384" height="384" x="0" y="0" style="fill:rgb(0%,0%,0%);fill-opacity:0.2"/>
   </g>
  </mask>
  <clipPath id="clip1">
   <rect width="384" height="384" x="0" y="0"/>
  </clipPath>
  <g id="surface5" clip-path="url(#clip1)">
   <path style="fill:rgb(0%,0%,0%)" d="M 24 319.332031 L 24 331.332031 C 24 340.570312 31.496094 348 40.804688 348 L 343.199219 348 C 352.5 348 360 340.570312 360 331.332031 L 360 319.332031 C 360 328.574219 352.5 336 343.199219 336 L 40.804688 336 C 31.503906 336 24.003906 328.574219 24.003906 319.332031 Z M 24 319.332031"/>
  </g>
  <mask id="mask1">
   <g filter="url(#alpha)">
    <rect width="384" height="384" x="0" y="0" style="fill:rgb(0%,0%,0%);fill-opacity:0.2"/>
   </g>
  </mask>
  <clipPath id="clip2">
   <rect width="384" height="384" x="0" y="0"/>
  </clipPath>
  <g id="surface8" clip-path="url(#clip2)">
   <path style="fill:none;stroke-width:1.999971;stroke-linecap:round;stroke-linejoin:round;stroke:rgb(0%,0%,0%)" d="M 15.002604 39.000651 L 19.003255 19.001302 L 21.003255 49.000651 L 23.003255 21.001302 L 25.003255 47.000651 L 27.003255 25.001302 L 29.003255 39.000651 L 33.003255 21.001302 L 33.003255 45.000651 L 37.002604 19.001302 L 41.002604 49.000651 L 43.002604 27.001302 L 47.001953 37.001302" transform="matrix(6,0,0,6,0,0)"/>
  </g>
  <mask id="mask2">
   <g filter="url(#alpha)">
    <rect width="384" height="384" x="0" y="0" style="fill:rgb(0%,0%,0%);fill-opacity:0.2"/>
   </g>
  </mask>
  <clipPath id="clip3">
   <rect width="384" height="384" x="0" y="0"/>
  </clipPath>
  <g id="surface11" clip-path="url(#clip3)">
   <path style="fill:rgb(100%,100%,100%)" d="M 40.804688 42 C 31.496094 42 24 49.429688 24 58.664062 L 24 64.664062 C 24 55.429688 31.496094 48 40.804688 48 L 343.195312 48 C 352.507812 48 360 55.429688 360 64.664062 L 360 58.664062 C 360 49.429688 352.507812 42 343.195312 42 Z M 40.804688 42"/>
  </g>
 </defs>
 <g>
  <use mask="url(#mask0)" xlink:href="#surface5"/>
  <path style="fill:rgb(15.294118%,58.039216%,81.960784%)" d="M 359.996094 325.332031 L 359.996094 58.671875 C 359.996094 49.4375 352.507812 42.003906 343.195312 42.003906 L 40.800781 42.003906 C 31.492188 42.003906 24 49.4375 24 58.671875 L 24 325.332031 C 24 334.570312 31.492188 342 40.800781 342 L 343.195312 342 C 352.503906 342 359.996094 334.566406 359.996094 325.332031 Z M 359.996094 325.332031"/>
  <use mask="url(#mask1)" xlink:href="#surface8"/>
  <path style="fill:none;stroke-width:1.999971;stroke-linecap:round;stroke-linejoin:round;stroke:rgb(100%,100%,100%)" d="M 15.002604 38 L 19.003255 18.000651 L 21.003255 48 L 23.003255 20.000651 L 25.003255 46 L 27.003255 24.000651 L 29.003255 38 L 33.003255 20.000651 L 33.003255 44 L 37.002604 18.000651 L 41.002604 48 L 43.002604 26.000651 L 47.001953 36.000651" transform="matrix(6,0,0,6,0,0)"/>
  <use mask="url(#mask2)" xlink:href="#surface11"/>
 </g>
</svg>
